src/images/icons/jquery.svg

<svg xmlns="http://www.w3.org/2000/svg" xmlns:svg="http://www.w3.org/2000/svg" id="svg4" width="50" height="50" fill="#0868ac" version="1.1" viewBox="0 0 25 25"><path id="path2" d="m 1.5873951,6.1167546 c -2.2121286,3.1762268 -1.93854378,7.3076624 -0.247008,10.6914754 0.039083,0.08116 0.082076,0.160762 0.1235041,0.240363 l 0.078167,0.152179 c 0.015633,0.02966 0.03283,0.05853 0.049245,0.0874 0.028922,0.05463 0.058626,0.104574 0.088329,0.157641 l 0.1618058,0.276261 0.092237,0.151398 0.187601,0.29265 0.07973,0.123303 c 0.088329,0.131107 0.1782209,0.262214 0.2712398,0.3902 l 0.053153,0.0718 a 12.811586,12.790752 0 0 0 0.247008,0.327768 l 0.0938,0.118621 0.2282479,0.280944 0.087547,0.104573 c 0.1039622,0.122523 0.2110511,0.244266 0.31814,0.362887 0.010943,0.0117 0.015633,0.01561 0.01876,0.02029 a 15.977353,15.95137 0 0 0 0.3236118,0.340255 l 0.1039622,0.104574 0.2579514,0.252849 0.1055256,0.101451 a 13.272772,13.251188 0 0 0 0.3540969,0.321526 l 0.3877087,0.327768 0.1328841,0.106134 0.2681131,0.209147 0.1430458,0.109257 0.3009433,0.21539 0.1407007,0.09911 c 0.096146,0.06633 0.1938544,0.129547 0.292345,0.192759 l 0.1266307,0.08428 a 16.266572,16.240118 0 0 0 0.4572774,0.279384 l 0.1266307,0.07804 0.3439352,0.191978 c 0.062534,0.03356 0.1266307,0.06555 0.1899461,0.09755 l 0.2454443,0.127205 0.057062,0.02731 0.1016173,0.04838 0.3892717,0.179492 0.082076,0.03668 a 13.937192,13.914527 0 0 0 0.4541507,0.188075 l 0.1094339,0.0437 0.4283558,0.158421 0.054716,0.01873 a 16.977892,16.950282 0 0 0 0.4768186,0.15608 l 0.1156883,0.03434 c 0.156334,0.04917 0.325175,0.109256 0.492453,0.138911 10.7042,1.948658 13.812124,-6.42269 13.812124,-6.42269 -2.610781,3.396301 -7.246089,4.292199 -11.646897,3.294848 -0.166495,-0.03746 -0.328301,-0.08897 -0.490107,-0.13735 l -0.12194,-0.03668 a 14.554712,14.531043 0 0 1 -0.472129,-0.153739 l -0.06488,-0.02341 a 16.313472,16.286942 0 0 1 -0.415847,-0.153728 l -0.11725,-0.04682 A 11.850131,11.830859 0 0 1 10.614911,20.36842 l -0.08989,-0.03902 -0.37911,-0.176371 -0.109434,-0.05228 c -0.09849,-0.04682 -0.1954203,-0.09911 -0.2931293,-0.15608 L 9.5479298,19.843208 C 9.4291159,19.780777 9.3134287,19.713662 9.1961781,19.646548 L 9.0773642,19.580216 A 17.009158,16.981498 0 0 1 8.6200868,19.300833 c -0.041428,-0.02653 -0.082076,-0.05463 -0.1235039,-0.08194 L 8.1714078,19.00272 C 8.1354508,18.97931 8.0932408,18.95277 8.0666639,18.92936 L 7.758687,18.706943 7.6218944,18.60393 7.3444013,18.386979 7.2208972,18.287868 6.8753988,17.996779 a 0.57061975,0.5696918 0 0 0 -0.039083,-0.03121 L 6.4728382,17.635454 6.371221,17.537124 6.1117063,17.279592 6.0100891,17.17814 c -0.109434,-0.111597 -0.2157412,-0.223975 -0.3126684,-0.338694 -0.00547,-0.0055 -0.010943,-0.01093 -0.015633,-0.01716 A 13.272772,13.251188 0 0 1 5.3566122,16.452368 L 5.2784451,16.350916 5.0439439,16.062168 4.9657767,15.955254 4.6953186,15.596269 C 2.2424354,12.27801 1.3654006,7.6908208 3.3148878,3.9292941 M 8.4582821,3.4415443 C 6.8574203,5.7413822 6.9441858,8.8263023 8.1925143,11.251784 a 10.208622,10.19202 0 0 0 0.7081935,1.179964 c 0.2399728,0.343377 0.5057414,0.751526 0.8238815,1.027007 0.1156873,0.127205 0.2360644,0.249728 0.3595687,0.372251 l 0.0938,0.09365 a 10.482207,10.46516 0 0 0 0.366603,0.340254 c 0.0055,0.0039 0.0094,0.0094 0.01563,0.01327 0.142265,0.124864 0.286092,0.23412 0.432264,0.357424 l 0.09693,0.0757 a 10.52129,10.50418 0 0 0 0.448679,0.326987 l 0.01329,0.0094 c 0.06722,0.04682 0.136011,0.08975 0.204798,0.13501 0.03283,0.02107 0.0641,0.0437 0.09693,0.06399 a 9.0986492,9.0838531 0 0 0 0.33221,0.202903 l 0.0469,0.02731 0.293908,0.15608 c 0.03439,0.01951 0.07817,0.0359 0.104744,0.05463 l 0.205579,0.106135 c 0.01016,0.0055 0.02111,0.0094 0.03127,0.01405 a 8.9032313,8.8887526 0 0 0 0.428355,0.199002 l 0.0938,0.03902 a 11.06846,11.05046 0 0 0 0.351751,0.142032 l 0.150082,0.05463 a 11.146627,11.1285 0 0 0 0.32283,0.111597 l 0.146172,0.04682 c 0.153989,0.04682 0.312668,0.109256 0.466657,0.13501 8.264607,1.36726 10.172665,-4.994559 10.172665,-4.994559 -1.719675,2.473868 -5.049594,3.652271 -8.604632,2.731399 a 10.208622,10.19202 0 0 1 -0.468222,-0.135008 c -0.0469,-0.01405 -0.0938,-0.02966 -0.1407,-0.04527 l -0.328301,-0.11241 -0.156333,-0.05463 a 11.787597,11.768428 0 0 1 -0.351752,-0.14203 l -0.09536,-0.03902 A 9.83342,9.8174288 0 0 1 14.423222,13.544598 L 14.2067,13.435342 14.081632,13.371348 a 10.286789,10.270061 0 0 1 -0.273585,-0.15374 l -0.06566,-0.03668 a 9.6458188,9.6301324 0 0 1 -0.331428,-0.202904 c -0.03361,-0.02107 -0.06644,-0.04448 -0.100053,-0.06633 l -0.214961,-0.142032 a 10.349323,10.332492 0 0 1 -0.445552,-0.326207 l -0.101617,-0.07804 C 10.985424,11.138626 9.7597642,9.4623284 9.1735114,7.5628353 8.5591177,5.5923259 8.6912199,3.3798928 9.7558559,1.5849733 M 14.236394,1.4421601 c -0.942696,1.3930136 -1.036495,3.1083322 -0.381455,4.6394765 0.690215,1.6255726 2.105039,2.8999654 3.75671,3.511799 l 0.204798,0.078041 0.09067,0.028093 0.294689,0.078041 C 22.765201,10.6579 24.001804,7.4395328 24.332451,6.9658302 23.248273,8.5242895 21.426199,8.8981006 19.19062,8.3565035 19.013963,8.3135822 18.820108,8.2495889 18.649703,8.1894976 A 6.6129358,6.6021817 0 0 1 18.007174,7.9233804 6.6442026,6.6333977 0 0 1 16.880786,7.2374086 C 14.880491,5.7226527 13.637634,2.8242481 14.943024,0.47056249" style="stroke-width:.781035"/></svg>

<svg xmlns="http://www.w3.org/2000/svg" id="svg4" width="50" height="50" fill="#0868ac" version="1.1" viewBox="0 0 25 25">
  <path id="path2" d="M1.587 6.117C-.625 9.293-.35 13.424 1.34 16.808c.04.081.082.161.124.24l.078.153c.016.03.033.058.05.087.028.055.058.105.088.158l.161.276.093.151.187.293.08.123c.088.132.178.263.271.39l.053.072a12.812 12.79 0 0 0 .247.328l.094.119.228.28.088.105c.104.123.211.245.318.363l.019.02a15.977 15.951 0 0 0 .324.34l.103.105.258.253.106.102a13.273 13.251 0 0 0 .354.321l.388.328.133.106.268.21.143.108.3.216.141.099c.097.066.194.13.293.193l.126.084a16.267 16.24 0 0 0 .458.28l.126.077.344.192c.063.034.127.066.19.098l.246.127.057.027.101.049.39.18.082.036a13.937 13.915 0 0 0 .454.188l.11.044.428.158.054.019a16.978 16.95 0 0 0 .477.156l.116.034c.156.05.325.11.492.14 10.704 1.948 13.812-6.423 13.812-6.423-2.61 3.396-7.246 4.292-11.646 3.294-.167-.037-.329-.089-.49-.137l-.123-.037a14.555 14.531 0 0 1-.472-.153l-.065-.024a16.313 16.287 0 0 1-.415-.153l-.118-.047a11.85 11.83 0 0 1-.45-.188l-.089-.039-.38-.176-.109-.052a3.943 3.943 0 0 1-.293-.156l-.195-.102c-.119-.062-.235-.13-.352-.196l-.119-.067a17.01 16.981 0 0 1-.457-.28l-.123-.081-.326-.216c-.036-.024-.078-.05-.104-.074l-.308-.222-.137-.103-.278-.217-.123-.1-.346-.29a.57.57 0 0 0-.039-.031l-.363-.33-.102-.099-.26-.257-.1-.102a6.265 6.265 0 0 1-.314-.339l-.015-.017a13.273 13.251 0 0 1-.325-.37l-.079-.101-.234-.289-.078-.107-.27-.359C2.241 12.278 1.365 7.691 3.314 3.93m5.143-.487c-1.6 2.3-1.514 5.384-.265 7.81a10.209 10.192 0 0 0 .708 1.18c.24.343.505.751.824 1.027.115.127.236.25.36.372l.093.094a10.482 10.465 0 0 0 .367.34c.005.004.009.01.015.013.142.125.286.234.432.358l.097.075a10.521 10.504 0 0 0 .45.327l.012.01c.068.047.136.09.205.135.033.02.064.043.097.064a9.099 9.084 0 0 0 .332.203l.047.027.294.156c.034.02.078.036.105.055l.205.106.032.014a8.903 8.889 0 0 0 .428.199l.094.039a11.068 11.05 0 0 0 .352.142l.15.054a11.147 11.129 0 0 0 .323.112l.146.047c.154.047.312.11.466.135C23.092 17.903 25 11.54 25 11.54c-1.72 2.474-5.05 3.653-8.605 2.732a10.209 10.192 0 0 1-.468-.135 3.273 3.273 0 0 1-.14-.046l-.329-.112-.156-.055a11.788 11.768 0 0 1-.352-.142l-.095-.039a9.833 9.817 0 0 1-.432-.2l-.216-.109-.125-.064a10.287 10.27 0 0 1-.274-.153l-.066-.037a9.646 9.63 0 0 1-.331-.203c-.034-.021-.066-.044-.1-.066l-.215-.142a10.35 10.332 0 0 1-.446-.327l-.101-.078c-1.564-1.226-2.79-2.903-3.375-4.802-.615-1.97-.483-4.183.582-5.978m4.48-.143c-.942 1.393-1.036 3.108-.381 4.64.69 1.625 2.105 2.9 3.757 3.511l.204.078.091.029.295.078c4.563.88 5.8-2.338 6.13-2.812-1.084 1.558-2.906 1.932-5.141 1.39a5.857 5.857 0 0 1-.541-.167 6.613 6.602 0 0 1-.643-.266 6.644 6.633 0 0 1-1.126-.686c-2-1.514-3.243-4.413-1.938-6.766" style="stroke-width:.781035"/>
</svg>
